gnome-shell/src/data/icons/scalable/actions/pointer-drag-symbolic.svg

<?xml version="1.0" encoding="UTF-8" standalone="no"?>
<svg
   height="20px"
   viewBox="0 0 20 20"
   width="20px"
   version="1.1"
   id="svg2214"
   sodipodi:docname="pointer-drag-symbolic.svg"
   inkscape:version="1.2 (1:1.2.1+202207142221+cd75a1ee6d)"
   xmlns:inkscape="http://www.inkscape.org/namespaces/inkscape"
   xmlns:sodipodi="http://sodipodi.sourceforge.net/DTD/sodipodi-0.dtd"
   xmlns="http://www.w3.org/2000/svg"
   xmlns:svg="http://www.w3.org/2000/svg">
  <defs
     id="defs2218" />
  <sodipodi:namedview
     id="namedview2216"
     pagecolor="#ffffff"
     bordercolor="#666666"
     borderopacity="1.0"
     inkscape:showpageshadow="2"
     inkscape:pageopacity="0.0"
     inkscape:pagecheckerboard="0"
     inkscape:deskcolor="#d1d1d1"
     showgrid="true"
     inkscape:zoom="11.8"
     inkscape:cx="-0.72033898"
     inkscape:cy="0.16949153"
     inkscape:window-width="1920"
     inkscape:window-height="1043"
     inkscape:window-x="0"
     inkscape:window-y="0"
     inkscape:window-maximized="1"
     inkscape:current-layer="svg2214">
    <inkscape:grid
       type="xygrid"
       id="grid2370" />
  </sodipodi:namedview>
  <path
     id="path5658"
     style="color:#000000;font-style:normal;font-variant:normal;font-weight:normal;font-stretch:normal;font-size:medium;line-height:normal;font-family:sans-serif;font-variant-ligatures:normal;font-variant-position:normal;font-variant-caps:normal;font-variant-numeric:normal;font-variant-alternates:normal;font-feature-settings:normal;text-indent:0;text-align:start;text-decoration:none;text-decoration-line:none;text-decoration-style:solid;text-decoration-color:#000000;letter-spacing:normal;word-spacing:normal;text-transform:none;writing-mode:lr-tb;direction:ltr;text-orientation:mixed;dominant-baseline:auto;baseline-shift:baseline;text-anchor:start;white-space:normal;shape-padding:0;clip-rule:nonzero;display:inline;overflow:visible;visibility:visible;isolation:auto;mix-blend-mode:normal;color-interpolation:sRGB;color-interpolation-filters:linearRGB;solid-color:#000000;solid-opacity:1;vector-effect:none;fill:#808080;fill-opacity:1;fill-rule:nonzero;stroke:none;stroke-width:2;stroke-linecap:butt;stroke-linejoin:miter;stroke-miterlimit:4;stroke-dasharray:none;stroke-dashoffset:0;stroke-opacity:1;color-rendering:auto;image-rendering:auto;shape-rendering:auto;text-rendering:auto;enable-background:new"
     d="M 9.9980469 1 C 8.907345 1 7.9980469 1.9093011 7.9980469 3 L 7.9980469 3.4199219 C 7.6891242 3.2232821 7.3852685 3 6.9980469 3 C 5.907345 3 4.9980469 3.9093011 4.9980469 5 L 4.9980469 12.171875 L 4.421875 11.595703 C 4.0456264 11.208924 3.5278017 10.990274 2.9882812 10.990234 L 2.9863281 10.990234 C 2.3937436 10.992093 1.8361382 11.259437 1.4589844 11.710938 L 0.16796875 13.001953 L 1.5351562 14.365234 L 1.4980469 14.324219 C 1.5290568 14.358819 1.56038 14.391428 1.59375 14.423828 L 4.5839844 17.414062 L 5.2910156 18.121094 L 5.5703125 18.400391 C 5.9969174 18.843927 6.6049547 19.061257 7.2128906 19 L 10.998047 19 L 13 19 L 13.011719 19 L 13.017578 19 C 14.246254 18.9858 15.338369 19.087004 16.419922 18.490234 C 17.019744 18.159295 17.469109 17.612949 17.710938 16.96875 C 17.938219 16.361801 17.998047 15.718729 17.998047 15 L 17.998047 12 L 17.998047 9 L 17.998047 6 C 17.998047 4.9093011 17.088749 4 15.998047 4 C 15.610825 4 15.30697 4.2232821 14.998047 4.4199219 L 14.998047 4 C 14.998047 2.9093011 14.088749 2 12.998047 2 C 12.530526 2 12.134549 2.2310028 11.791016 2.5078125 C 11.547064 1.6784233 10.898114 1 9.9980469 1 z M 9.9980469 2 L 10 2 C 10.553999 2 11 2.4460006 11 3 L 11 9 L 12 9 L 12 4 C 12 3.4460006 12.446001 3 13 3 C 13.553999 3 14 3.4460006 14 4 L 14 10 L 15 10 L 15 6 C 15 5.4460006 15.446001 5 16 5 C 16.553999 5 17 5.4460006 17 6 L 17 9 L 17 12 L 17 15 C 17 15.657609 16.93971 16.178518 16.775391 16.617188 C 16.610721 17.055847 16.31387 17.407575 15.9375 17.615234 C 15.184751 18.030604 14.264048 17.9855 13.005859 18 L 13 18 L 10.998047 18 L 7.1777344 18 C 6.8519047 18.05483 6.5200554 17.945161 6.2910156 17.707031 L 5.9980469 17.414062 L 5.2910156 16.707031 L 2.2910156 13.707031 C 2.2741156 13.690631 2.2578875 13.67375 2.2421875 13.65625 L 1.5839844 13 L 2.1816406 12.402344 C 2.3693304 12.144104 2.6690416 11.990984 2.9882812 11.990234 C 3.258281 11.990254 3.5168083 12.099429 3.7050781 12.292969 L 5.9980469 14.585938 L 5.9980469 5 C 5.9980469 4.4460006 6.4440474 4 6.9980469 4 C 7.5520463 4 7.9980469 4.4460006 7.9980469 5 L 7.9980469 9 L 8.9980469 9 L 8.9980469 3 C 8.9980469 2.4460006 9.4440474 2 9.9980469 2 z " />
</svg>

<svg height="20" width="20" xmlns="http://www.w3.org/2000/svg"><path style="color:#000;font-style:normal;font-variant:normal;font-weight:400;font-stretch:normal;font-size:medium;line-height:normal;font-family:sans-serif;font-variant-ligatures:normal;font-variant-position:normal;font-variant-caps:normal;font-variant-numeric:normal;font-variant-alternates:normal;font-feature-settings:normal;text-indent:0;text-align:start;text-decoration:none;text-decoration-line:none;text-decoration-style:solid;text-decoration-color:#000;letter-spacing:normal;word-spacing:normal;text-transform:none;writing-mode:lr-tb;direction:ltr;text-orientation:mixed;dominant-baseline:auto;baseline-shift:baseline;text-anchor:start;white-space:normal;shape-padding:0;clip-rule:nonzero;display:inline;overflow:visible;visibility:visible;isolation:auto;mix-blend-mode:normal;color-interpolation:sRGB;color-interpolation-filters:linearRGB;solid-color:#000;solid-opacity:1;vector-effect:none;fill:gray;fill-opacity:1;fill-rule:nonzero;stroke:none;stroke-width:2;stroke-linecap:butt;stroke-linejoin:miter;stroke-miterlimit:4;stroke-dasharray:none;stroke-dashoffset:0;stroke-opacity:1;color-rendering:auto;image-rendering:auto;shape-rendering:auto;text-rendering:auto;enable-background:new" d="M9.998 1c-1.09 0-2 .91-2 2v.42c-.309-.197-.613-.42-1-.42-1.09 0-2 .91-2 2v7.172l-.576-.576a2.002 2.002 0 0 0-1.434-.606h-.002a2 2 0 0 0-1.527.72L.168 13.003l1.367 1.363-.037-.04c.031.034.062.066.096.099l2.99 2.99.707.707.28.28A2 2 0 0 0 7.212 19h5.805c1.228-.014 2.32.087 3.402-.51a2.88 2.88 0 0 0 1.29-1.521c.228-.607.288-1.25.288-1.969V6c0-1.09-.91-2-2-2-.387 0-.691.223-1 .42V4c0-1.09-.91-2-2-2-.467 0-.863.231-1.207.508C11.547 1.678 10.898 1 9.998 1zm0 1H10c.554 0 1 .446 1 1v6h1V4c0-.554.446-1 1-1s1 .446 1 1v6h1V6c0-.554.446-1 1-1s1 .446 1 1v9c0 .658-.06 1.179-.225 1.617a1.88 1.88 0 0 1-.837.998c-.753.416-1.674.37-2.932.385H7.178a1 1 0 0 1-.887-.293l-.293-.293-.707-.707-3-3a1.017 1.017 0 0 1-.049-.05L1.584 13l.598-.598a1 1 0 0 1 1.523-.109l2.293 2.293V5c0-.554.446-1 1-1s1 .446 1 1v4h1V3c0-.554.446-1 1-1z"/></svg>
